X:41
T:Trio Sonata Op.2 No.1 - Preludio
C:Corelli, A.
M:4/4
L:1/8
Q:1/4=66
K:D
|:A2|d4 ef g2|f2 ed c2 B2|A4 Bc d2|e2 dc B2 A2|
G4 AB c2|B2 AG F2 E2|F4 GA B2|A4 A2:|

